X:1
T:Frank's Reel
C:John McCusker
L:1/8
M:C|
I:linebreak $
K:A
V:1 treble
V:1
 "A"AcBA "D"F2 AF | "A"EFAB cABc | "D"d3 f "A"eAce |"D" faec "E"Bcdc | B |$
 "A"AcBA "D"F2 AF | "A"EFAB cABc | "D"d3 f "A"ecAc |1 "E"BAGB "A"A2 (3EFG :|2 "E"BAGB "A"Aefg |:$
 "A"!>!aAA!>!g AA!>!fA | effe cABc | "D"d3 f "A"ecAc | "Bm"Bcde "E"fefg |$
 "A"!>!aAA!>!g AA!>!fA | effe cABc | "D"df (3fff "A"ecAc |1 "E"BAGB "A"Aefg :|2 "E"BAGB "A"A4 |]
